dist/img/pusets/step-4.svg

<svg width="58" height="48" viewBox="0 0 58 48" fill="none" xmlns="http://www.w3.org/2000/svg">
<path d="M47.1262 30.793C46.6254 30.793 46.2202 30.3878 46.2202 29.8871V19.925C46.2202 19.4238 46.6254 19.019 47.1262 19.019C47.6274 19.019 48.0322 19.4238 48.0322 19.925V29.8871C48.0322 30.3878 47.6274 30.793 47.1262 30.793Z" fill="#D79081"/>
<path d="M51.6578 47.1044C51.1571 47.1044 50.7519 46.6992 50.7519 46.1984V34.796L47.1262 31.1695L43.5024 34.796V46.1984C43.5024 46.6992 43.0976 47.1044 42.5964 47.1044C42.0956 47.1044 41.6904 46.6992 41.6904 46.1984V34.4209C41.6904 34.1807 41.7855 33.9498 41.9558 33.7803L46.4857 29.247C46.8254 28.9073 47.427 28.9073 47.7668 29.247L52.2984 33.7803C52.4687 33.9507 52.5638 34.1798 52.5638 34.4209V46.1984C52.5638 46.6992 52.159 47.1044 51.6578 47.1044Z" fill="#D79081"/>
<path d="M57.0936 18.1152H37.1589C36.6581 18.1152 36.2529 17.7104 36.2529 17.2092C36.2529 16.708 36.6581 16.3032 37.1589 16.3032H57.0936C57.5948 16.3032 57.9996 16.708 57.9996 17.2092C57.9996 17.7104 57.5948 18.1152 57.0936 18.1152Z" fill="#D79081"/>
<path d="M40.7849 20.8313C40.2841 20.8313 39.8789 20.4261 39.8789 19.9254V17.1911C39.8789 16.6899 40.2841 16.2852 40.7849 16.2852C41.2861 16.2852 41.6908 16.6899 41.6908 17.1911V19.9254C41.6908 20.4261 41.2861 20.8313 40.7849 20.8313Z" fill="#D79081"/>
<path d="M53.4666 20.831H40.7849C40.2841 20.831 39.8789 20.4258 39.8789 19.925C39.8789 19.4238 40.2841 19.019 40.7849 19.019H53.4666C53.9678 19.019 54.3725 19.4238 54.3725 19.925C54.3725 20.4258 53.9678 20.831 53.4666 20.831Z" fill="#D79081"/>
<path d="M53.4665 20.8313C52.9658 20.8313 52.5605 20.4261 52.5605 19.9254V17.1911C52.5605 16.6899 52.9658 16.2852 53.4665 16.2852C53.9677 16.2852 54.3725 16.6899 54.3725 17.1911V19.9254C54.3725 20.4261 53.9677 20.8313 53.4665 20.8313Z" fill="#D79081"/>
<path d="M47.1262 18.0977C46.6254 18.0977 46.2202 17.6929 46.2202 17.1918V15.3962C46.2202 14.895 46.6254 14.4902 47.1262 14.4902C47.6274 14.4902 48.0322 14.895 48.0322 15.3962V17.1918C48.0322 17.6921 47.6274 18.0977 47.1262 18.0977Z" fill="#D79081"/>
<path d="M51.6578 35.3266H42.5964C42.0956 35.3266 41.6904 34.9214 41.6904 34.4206C41.6904 33.9194 42.0956 33.5146 42.5964 33.5146H51.6578C52.159 33.5146 52.5638 33.9194 52.5638 34.4206C52.5638 34.9214 52.159 35.3266 51.6578 35.3266Z" fill="#D79081"/>
<path d="M51.6578 38.9526H42.5964C42.0956 38.9526 41.6904 38.5478 41.6904 38.0466C41.6904 37.5454 42.0956 37.1406 42.5964 37.1406H51.6578C52.159 37.1406 52.5638 37.5454 52.5638 38.0466C52.5638 38.5478 52.159 38.9526 51.6578 38.9526Z" fill="#D79081"/>
<path d="M51.6578 42.5766H42.5964C42.0956 42.5766 41.6904 42.1718 41.6904 41.6706C41.6904 41.1694 42.0956 40.7646 42.5964 40.7646H51.6578C52.159 40.7646 52.5638 41.1694 52.5638 41.6706C52.5638 42.1718 52.159 42.5766 51.6578 42.5766Z" fill="#D79081"/>
<path d="M45.3161 42.5764C44.8154 42.5764 44.4102 42.1716 44.4102 41.6704V38.0466C44.4102 37.5454 44.8154 37.1406 45.3161 37.1406C45.8173 37.1406 46.2221 37.5454 46.2221 38.0466V41.6704C46.2221 42.1716 45.8173 42.5764 45.3161 42.5764Z" fill="#D79081"/>
<path d="M48.9401 42.5764C48.4394 42.5764 48.0342 42.1716 48.0342 41.6704V38.0466C48.0342 37.5454 48.4394 37.1406 48.9401 37.1406C49.4413 37.1406 49.8461 37.5454 49.8461 38.0466V41.6704C49.8461 42.1716 49.4413 42.5764 48.9401 42.5764Z" fill="#D79081"/>
<path d="M19.9514 28.1017C19.7192 28.1017 19.4874 28.0128 19.3109 27.8363L0.265751 8.80661C-0.0885836 8.45316 -0.0885836 7.87985 0.265751 7.52552C0.619643 7.17118 1.19251 7.17118 1.5464 7.52552L20.5907 26.5561C20.945 26.9095 20.945 27.4828 20.5907 27.8371C20.4142 28.0137 20.1832 28.1017 19.9514 28.1017Z" fill="#D79081"/>
<path d="M19.9455 28.1016C19.7137 28.1016 19.4819 28.0127 19.305 27.8362C18.9511 27.4818 18.9511 26.9094 19.305 26.5551L38.3359 7.52454C38.6898 7.17021 39.2627 7.17021 39.617 7.52454C39.9709 7.87887 39.9709 8.45129 39.617 8.80563L20.5861 27.8371C20.4096 28.0136 20.1778 28.1016 19.9455 28.1016Z" fill="#D79081"/>
<path d="M38.9768 9.07218H0.906452C0.405252 9.07218 0.000488281 8.66697 0.000488281 8.16622C0.000488281 7.66502 0.405252 7.26025 0.906452 7.26025H38.9759C39.4767 7.26025 39.8819 7.66502 39.8819 8.16622C39.8819 8.66697 39.4767 9.07218 38.9768 9.07218Z" fill="#D79081"/>
<path d="M19.9515 28.1018C19.5715 28.1018 19.2185 27.8616 19.0924 27.4821L12.7418 8.4405C12.583 7.96584 12.8396 7.45314 13.3143 7.29477C13.7889 7.13419 14.3016 7.39253 14.4604 7.86719L20.811 26.9088C20.9698 27.3834 20.7133 27.8961 20.2386 28.055C20.1435 28.0872 20.0457 28.1018 19.9515 28.1018Z" fill="#D79081"/>
<path d="M19.9512 28.102C19.857 28.102 19.7597 28.0865 19.6654 28.056C19.1908 27.8972 18.9338 27.3845 19.0912 26.9098L25.4259 7.8682C25.5834 7.39355 26.0979 7.13874 26.5716 7.29401C27.0467 7.45238 27.3038 7.96508 27.1463 8.43974L20.8116 27.4813C20.6838 27.8627 20.3308 28.102 19.9512 28.102Z" fill="#D79081"/>
<path d="M13.6006 9.0609C13.3688 9.0609 13.137 8.97243 12.96 8.79548L6.61829 2.45374C6.26396 2.0994 6.26396 1.52698 6.61829 1.17265C6.97262 0.818754 7.54504 0.818754 7.89938 1.17265L14.2411 7.51439C14.5955 7.86873 14.5955 8.44115 14.2411 8.79548C14.0646 8.97243 13.8324 9.0609 13.6006 9.0609Z" fill="#D79081"/>
<path d="M0.917038 9.0609C0.685238 9.0609 0.453439 8.97243 0.276493 8.79548C-0.0778414 8.44115 -0.0778414 7.86873 0.276493 7.51439L6.61824 1.17265C6.97257 0.818754 7.54499 0.818754 7.89933 1.17265C8.25366 1.52698 8.25366 2.0994 7.89933 2.45374L1.55758 8.79548C1.38108 8.97243 1.14884 9.0609 0.917038 9.0609Z" fill="#D79081"/>
<path d="M26.2856 9.0609C26.0538 9.0609 25.822 8.97243 25.6451 8.79548L19.3033 2.45374C18.949 2.0994 18.949 1.52698 19.3033 1.17265C19.6577 0.818754 20.2301 0.818754 20.5844 1.17265L26.9262 7.51439C27.2805 7.86873 27.2805 8.44115 26.9262 8.79548C26.7497 8.97243 26.5174 9.0609 26.2856 9.0609Z" fill="#D79081"/>
<path d="M13.6021 9.0609C13.3703 9.0609 13.1385 8.97243 12.9616 8.79548C12.6072 8.44115 12.6072 7.86873 12.9616 7.51439L19.3033 1.17265C19.6576 0.818754 20.2301 0.818754 20.5844 1.17265C20.9387 1.52698 20.9387 2.0994 20.5844 2.45374L14.2426 8.79548C14.0661 8.97243 13.8339 9.0609 13.6021 9.0609Z" fill="#D79081"/>
<path d="M38.9709 9.0609C38.7391 9.0609 38.5073 8.97243 38.3303 8.79548L31.9886 2.45374C31.6347 2.0994 31.6347 1.52698 31.9886 1.17265C32.3429 0.818754 32.9153 0.818754 33.2697 1.17265L39.6114 7.51439C39.9657 7.86873 39.9657 8.44115 39.6114 8.79548C39.4349 8.97243 39.2031 9.0609 38.9709 9.0609Z" fill="#D79081"/>
<path d="M26.2873 9.0609C26.0555 9.0609 25.8237 8.97243 25.6468 8.79548C25.2929 8.44115 25.2929 7.86873 25.6468 7.51439L31.9885 1.17265C32.3428 0.818754 32.9153 0.818754 33.2696 1.17265C33.6239 1.52698 33.6239 2.0994 33.2696 2.45374L26.9279 8.79548C26.7514 8.97243 26.5196 9.0609 26.2873 9.0609Z" fill="#D79081"/>
<path d="M32.629 2.71915H7.2585C6.75775 2.71915 6.35254 2.31439 6.35254 1.81319C6.35254 1.31243 6.75775 0.907227 7.2585 0.907227H32.629C33.1302 0.907227 33.535 1.31243 33.535 1.81319C33.535 2.31439 33.1302 2.71915 32.629 2.71915Z" fill="#D79081"/>
<path d="M37.1573 15.3957C36.9255 15.3957 36.6937 15.3068 36.5167 15.1303C36.1624 14.7759 36.1624 14.2035 36.5167 13.8492L38.3287 12.0372C38.683 11.6829 39.2554 11.6829 39.6098 12.0372C39.9641 12.3916 39.9641 12.964 39.6098 13.3183L37.7978 15.1303C37.6213 15.3068 37.3891 15.3957 37.1573 15.3957Z" fill="#D79081"/>
<path d="M38.9692 22.6452C38.7374 22.6452 38.5056 22.5563 38.3287 22.3798L36.5167 20.5678C36.1624 20.2135 36.1624 19.6411 36.5167 19.2867C36.8711 18.9324 37.4435 18.9324 37.7978 19.2867L39.6098 21.0987C39.9641 21.453 39.9641 22.0254 39.6098 22.3798C39.4333 22.5563 39.201 22.6452 38.9692 22.6452Z" fill="#D79081"/>
</svg>

<svg width="100%" height="100%" viewBox="0 0 58 48" xmlns="http://www.w3.org/2000/svg" fill="none" style="color: inherit;"><path d="M47.126 30.793c-.501 0-.906-.405-.906-.906v-9.962c0-.501.405-.906.906-.906s.906.405.906.906v9.962c0 .501-.405.906-.906.906zM51.658 47.104c-.501 0-.906-.405-.906-.906v-11.402l-3.626-3.627-3.624 3.627v11.402c0 .501-.405.906-.906.906s-.906-.405-.906-.906v-11.777c0-.24.095-.471.265-.641l4.53-4.533c.34-.34.941-.34 1.281 0l4.532 4.533c.17.17.265.4.265.641v11.777c0 .501-.405.906-.906.906zM57.094 18.115h-19.935c-.501 0-.906-.405-.906-.906s.405-.906.906-.906h19.935c.501 0 .906.405.906.906s-.405.906-.906.906zM40.785 20.831c-.501 0-.906-.405-.906-.906v-2.734c0-.501.405-.906.906-.906s.906.405.906.906v2.734c0 .501-.405.906-.906.906zM53.467 20.831h-12.682c-.501 0-.906-.405-.906-.906s.405-.906.906-.906h12.682c.501 0 .906.405.906.906s-.405.906-.906.906zM53.467 20.831c-.501 0-.906-.405-.906-.906v-2.734c0-.501.405-.906.906-.906s.906.405.906.906v2.734c0 .501-.405.906-.906.906zM47.126 18.098c-.501 0-.906-.405-.906-.906v-1.796c0-.501.405-.906.906-.906s.906.405.906.906v1.796c0 .5-.405.906-.906.906zM51.658 35.327h-9.061c-.501 0-.906-.405-.906-.906s.405-.906.906-.906h9.061c.501 0 .906.405.906.906s-.405.906-.906.906zM51.658 38.953h-9.061c-.501 0-.906-.405-.906-.906s.405-.906.906-.906h9.061c.501 0 .906.405.906.906s-.405.906-.906.906zM51.658 42.577h-9.061c-.501 0-.906-.405-.906-.906s.405-.906.906-.906h9.061c.501 0 .906.405.906.906s-.405.906-.906.906zM45.316 42.576c-.501 0-.906-.405-.906-.906v-3.624c0-.501.405-.906.906-.906s.906.405.906.906v3.624c0 .501-.405.906-.906.906zM48.94 42.576c-.501 0-.906-.405-.906-.906v-3.624c0-.501.405-.906.906-.906s.906.405.906.906v3.624c0 .501-.405.906-.906.906zM19.951 28.102c-.232 0-.464-.089-.64-.265l-19.045-19.03c-.354-.353-.354-.927 0-1.281.354-.354.927-.354 1.281 0l19.044 19.031c.354.353.354.927 0 1.281-.176.177-.407.265-.639.265zM19.945 28.102c-.232 0-.464-.089-.64-.265-.354-.354-.354-.927 0-1.281l19.031-19.031c.354-.354.927-.354 1.281 0 .354.354.354.927 0 1.281l-19.031 19.031c-.176.177-.408.265-.641.265zM38.977 9.072h-38.07c-.501 0-.906-.405-.906-.906s.405-.906.906-.906h38.069c.501 0 .906.405.906.906s-.405.906-.905.906zM19.951 28.102c-.38 0-.733-.24-.859-.62l-6.351-19.042c-.159-.475.098-.987.572-1.146.475-.161.987.098 1.146.572l6.351 19.042c.159.475-.098.987-.572 1.146-.095.032-.193.047-.287.047zM19.951 28.102c-.094 0-.192-.015-.286-.046-.475-.159-.732-.672-.574-1.146l6.335-19.042c.158-.475.672-.729 1.146-.574.475.158.732.671.575 1.146l-6.335 19.042c-.128.381-.481.621-.86.621zM13.601 9.061c-.232 0-.464-.088-.641-.265l-6.342-6.342c-.354-.354-.354-.927 0-1.281.354-.354.927-.354 1.281 0l6.342 6.342c.354.354.354.927 0 1.281-.176.177-.409.265-.64.265zM.917 9.061c-.232 0-.464-.088-.641-.265-.354-.354-.354-.927 0-1.281l6.342-6.342c.354-.354.927-.354 1.281 0 .354.354.354.927 0 1.281l-6.342 6.342c-.176.177-.409.265-.641.265zM26.286 9.061c-.232 0-.464-.088-.64-.265l-6.342-6.342c-.354-.354-.354-.927 0-1.281.354-.354.927-.354 1.281 0l6.342 6.342c.354.354.354.927 0 1.281-.177.177-.409.265-.641.265zM13.602 9.061c-.232 0-.464-.088-.64-.265-.354-.354-.354-.927 0-1.281l6.342-6.342c.354-.354.927-.354 1.281 0 .354.354.354.927 0 1.281l-6.342 6.342c-.176.177-.409.265-.64.265zM38.971 9.061c-.232 0-.464-.088-.641-.265l-6.342-6.342c-.354-.354-.354-.927 0-1.281.354-.354.927-.354 1.281 0l6.342 6.342c.354.354.354.927 0 1.281-.177.177-.408.265-.641.265zM26.287 9.061c-.232 0-.464-.088-.64-.265-.354-.354-.354-.927 0-1.281l6.342-6.342c.354-.354.927-.354 1.281 0 .354.354.354.927 0 1.281l-6.342 6.342c-.177.177-.408.265-.641.265zM32.629 2.719h-25.37c-.501 0-.906-.405-.906-.906s.405-.906.906-.906h25.37c.501 0 .906.405.906.906s-.405.906-.906.906zM37.157 15.396c-.232 0-.464-.089-.641-.265-.354-.354-.354-.927 0-1.281l1.812-1.812c.354-.354.927-.354 1.281 0 .354.354.354.927 0 1.281l-1.812 1.812c-.177.177-.409.265-.641.265zM38.969 22.645c-.232 0-.464-.089-.641-.265l-1.812-1.812c-.354-.354-.354-.927 0-1.281.354-.354.927-.354 1.281 0l1.812 1.812c.354.354.354.927 0 1.281-.176.177-.409.265-.641.265z" fill="currentColor"/></svg>
